X:646
T: GUTE NACHT MEIN FEINES LIEB
N: E0595
O: Europa, Mitteleuropa, Deutschland
R: Liebes - Lied, Abend, Staendchen
M: 4/4
L: 1/8
K: G
dc | B2dcB2d2 | edcBc2
cB | A2A2d3c | B4z2
dc | B2dcB2d2 | edcBc2
cB | A2A2d3c | B4z2
GB | d3BG2g2 | e3dc2
cB | A3GF2e2 | d3cB2
dc | B2dcB2d2 | edcBc2
cB | A2e2d3c | B4z2

